X:76
C:Page 38
T:Bang-Upp Hornpipe. MBe.76
S:Matthew Betham MS, Towcett Cumbria, 1815
O:England;Cumbria;Towcett
Z:VMP – Hugh Taylor, 2012
T:Bang Up Hornpipe, aka. Mbe.76
M:C
L:1/8
Q:1/2=100
R:.Hornpipe
N:No key signature written. C sounds very modal, and most versions seem to be in D, so that is assumed here.
N:NB1-This ‘F’ was written as an ‘E’ which sounds wrong, and doesn’t match the ‘F’ in the 5th bar of the A
N:part. I have therefore alteted it to an ‘F’.
N:NB2-These two bars are both written with 4 quavers,and no repeat marks. I have altered them both to
N:3 crotchets, but left the repeat marks out.
K:D
A/B/c/”^No key sig in MS”|dA”^NB1″FA DFAd|fdAd FAdf|gfge fefd|edcB ABcA|
dAFA DFAd|fdAd FAdf|gfge face|”^NB2″d2 d2 d2 ||
“^in MS”AG|FAdA FAdA|GBdB GBdB|Acec Acec|dfaf gecA|
FAdA FAdA|GBdB GBdB|Aceg face|”^NB2″d2 d2 d2 |]

